packages/kaspersky-hexa-ui-icons/src/iconsSVGs/16x12/FlagGt.svg

<svg width="16" height="12" viewBox="0 0 16 12" fill="none" xmlns="http://www.w3.org/2000/svg">
<g clip-path="url(#clip0_41813_2474)">
<rect x="0.25" y="0.25" width="15.5" height="11.5" rx="1.75" fill="white" stroke="#F5F5F5" stroke-width="0.5"/>
<mask id="mask0_41813_2474" style="mask-type:luminance" maskUnits="userSpaceOnUse" x="0" y="0" width="16" height="12">
<rect x="0.25" y="0.25" width="15.5" height="11.5" rx="1.75" fill="white" stroke="white" stroke-width="0.5"/>
</mask>
<g mask="url(#mask0_41813_2474)">
<rect x="10.6666" width="5.33333" height="12" fill="#63AEE3"/>
<path fill-rule="evenodd" clip-rule="evenodd" d="M0 12H5.33333V0H0V12Z" fill="#63AEE3"/>
<path d="M6.4762 5.60001L6.82685 5.40754L6.0762 5.60001H6.4762ZM7.23636 6.98489L7.02824 7.32649L8.30819 8.1063L7.58701 6.79242L7.23636 6.98489ZM8.81992 6.94888L8.4653 6.76383L9.04292 7.28095L8.81992 6.94888ZM9.52382 5.60001H9.92382L9.1692 5.41495L9.52382 5.60001ZM6.4762 5.60001H6.0762C6.0762 6.33046 6.4541 6.97669 7.02824 7.32649L7.23636 6.98489L7.44447 6.6433C7.1096 6.43928 6.8762 6.05249 6.8762 5.60001H6.4762ZM7.23636 6.98489L7.58701 6.79242L6.82685 5.40754L6.4762 5.60001L6.12555 5.79248L6.88571 7.17736L7.23636 6.98489ZM8.81992 6.94888L9.04292 7.28095C9.57681 6.92242 9.92382 6.30002 9.92382 5.60001H9.52382H9.12382C9.12382 6.03343 8.9096 6.40683 8.59692 6.61681L8.81992 6.94888ZM9.52382 5.60001L9.1692 5.41495L8.4653 6.76383L8.81992 6.94888L9.17454 7.13394L9.87844 5.78506L9.52382 5.60001Z" fill="#628A40"/>
<ellipse cx="7.99994" cy="5.59999" rx="0.761905" ry="0.8" fill="#DCC26D"/>
</g>
</g>
<defs>
<clipPath id="clip0_41813_2474">
<rect width="16" height="12" fill="white"/>
</clipPath>
</defs>
</svg>

<svg xmlns="http://www.w3.org/2000/svg" width="16" height="12" fill="none" viewBox="0 0 16 12"><g clip-path="url(#a)"><rect width="16" height="12" fill="#fff" stroke="#f5f5f5" rx="2"/><mask id="b" width="16" height="12" x="0" y="0" maskUnits="userSpaceOnUse" style="mask-type:luminance"><rect width="16" height="12" fill="#fff" stroke="#fff" rx="2"/></mask><g mask="url(#b)"><path fill="#63aee3" d="M10.6666 0h5.3333v12h-5.3333z"/><path fill="#63aee3" fill-rule="evenodd" d="M0 12h5.3333V0H0z" clip-rule="evenodd"/><path fill="#628a40" d="m6.4762 5.6.3506-.1925-.7506.1925zm.7602 1.3849-.2082.3416 1.28.7798-.7212-1.3139zm1.5835-.036-.3546-.185.5776.517zM9.524 5.6h.4l-.7547-.185zm-3.0477 0h-.4c0 .7305.3779 1.3767.952 1.7265l.2082-.3416.208-.3416c-.3348-.204-.5682-.5908-.5682-1.0433zm.7602 1.3849.3506-.1925-.7601-1.3849-.3507.1925-.3507.1925.7602 1.3849zm1.5835-.036.223.332c.534-.3585.881-.9809.881-1.6809h-.8c0 .4334-.2143.8068-.527 1.0168zM9.524 5.6l-.3547-.185-.7039 1.3488.3546.185.3546.1851.704-1.3488z"/><circle cx="8" cy="6" r="1" fill="#dcc26d"/></g></g><defs><clipPath id="a"><path fill="#fff" d="M0 0h16v12H0z"/></clipPath></defs></svg>
